images/branch-and-history.svg

<?xml version="1.0"?>
<svg xmlns="http://www.w3.org/2000/svg" xmlns:xlink="http://www.w3.org/1999/xlink" width="469px" height="252px" viewBox="0 0 469 252" version="1.1">
    <!-- Generator: Sketch 56.3 (81716) - https://sketch.com -->
    <title>images/branch-and-history</title>
    <desc>Created with Sketch.</desc>
    <g id="03---Branch-and-History" stroke="none" stroke-width="1" fill="none" fill-rule="evenodd">
        <path id="Line-4" d="M343,197 L343,159 L344,159 L344,197 L348,197 L343.5,206 L339,197 L343,197 Z" fill="#8F8981" fill-rule="nonzero"/>
        <g id="symref" transform="translate(300.000000, 206.000000)">
            <rect id="Rectangle-2" fill="#00909A" fill-rule="evenodd" x="0" y="0" width="86" height="33"/>
            <text stroke="none" font-family="Source Code Pro" font-size="12px" font-weight="900" fill="#979797" fill-opacity="1" text-anchor="middle" id="master">
                <tspan fill="#f0f0f0" x="43" y="20" fill-opacity="1">Snapshot C</tspan>
            </text>
        </g>
        <path id="Line-5" d="M198,197 L198,159 L199,159 L199,197 L203,197 L198.5,206 L194,197 L198,197 Z" fill="#8F8981" fill-rule="nonzero"/>
        <g id="symref" transform="translate(155.000000, 206.000000)">
            <rect id="Rectangle-2" fill="#00909A" fill-rule="evenodd" x="0" y="0" width="86" height="33"/>
            <text stroke="none" font-family="Source Code Pro" font-size="12px" font-weight="900" fill="#979797" fill-opacity="1" text-anchor="middle" id="master">
                <tspan fill="#f0f0f0" x="43" y="20" fill-opacity="1">Snapshot B</tspan>
            </text>
        </g>
        <path id="Line-5" d="M53,197 L53,159 L54,159 L54,197 L58,197 L53.5,206 L49,197 L53,197 Z" fill="#8F8981" fill-rule="nonzero"/>
        <g id="symref" transform="translate(10.000000, 206.000000)">
            <rect id="Rectangle-2" fill="#00909A" fill-rule="evenodd" x="0" y="0" width="86" height="33"/>
            <text stroke="none" font-family="Source Code Pro" font-size="12px" font-weight="900" fill="#979797" fill-opacity="1" text-anchor="middle" id="master">
                <tspan fill="#f0f0f0" x="43" y="20" fill-opacity="1">Snapshot A</tspan>
            </text>
        </g>
        <g id="other" transform="translate(300.000000, 134.000000)">
            <rect id="Rectangle-2" fill="#EFEFE7" fill-rule="evenodd" x="0" y="0" width="86" height="33"/>
            <text stroke="none" font-family="Source Code Pro" font-size="12px" font-weight="900" fill="#979797" fill-opacity="1" text-anchor="middle" id="master">
                <tspan fill="#808080" x="43" y="21" fill-opacity="1">f30ab</tspan>
            </text>
        </g>
        <path id="Line-6" d="M406,63 L406,39 L407,39 L407,63 L411,63 L406.5,72 L402,63 L406,63 Z" fill="#8F8981" fill-rule="nonzero"/>
        <path id="Line-7" d="M383.283059,125.871864 L395.313948,104.817809 L396.182191,105.313948 L384.151303,126.368003 L387.624275,128.352559 L379.251931,133.934122 L379.810087,123.887308 L383.283059,125.871864 Z" fill="#8F8981" fill-rule="nonzero"/>
        <path id="Line-8" d="M300.251471,126.120976 L289.82918,105.276393 L290.723607,104.82918 L301.145898,125.673762 L304.723607,123.884908 L304.723607,133.947214 L296.673762,127.90983 L300.251471,126.120976 Z" fill="#8F8981" fill-rule="nonzero"/>
        <g id="other" transform="translate(155.000000, 134.000000)">
            <rect id="Rectangle-2" fill="#EFEFE7" fill-rule="evenodd" x="0" y="0" width="86" height="33"/>
            <text stroke="none" font-family="Source Code Pro" font-size="12px" font-weight="900" fill="#979797" fill-opacity="1" text-anchor="middle" id="master">
                <tspan fill="#808080" x="43" y="21" fill-opacity="1">34ac2</tspan>
            </text>
        </g>
        <g id="other" transform="translate(10.000000, 134.000000)">
            <rect id="Rectangle-2" fill="#EFEFE7" fill-rule="evenodd" x="0" y="0" width="86" height="33"/>
            <text stroke="none" font-family="Source Code Pro" font-size="12px" font-weight="900" fill="#979797" fill-opacity="1" text-anchor="middle" id="master">
                <tspan fill="#808080" x="43" y="21" fill-opacity="1">98ca9</tspan>
            </text>
        </g>
        <path id="Line" d="M250,150 L300,150 L300,151 L250,151 L250,155 L241,150.5 L250,146 L250,150 Z" fill="#8F8981" fill-rule="nonzero"/>
        <path id="Line-2" d="M105,150 L155,150 L155,151 L105,151 L105,155 L96,150.5 L105,146 L105,150 Z" fill="#8F8981" fill-rule="nonzero"/>
        <g id="ref" transform="translate(353.000000, 72.000000)">
            <rect id="Rectangle-2" fill="#F44D27" fill-rule="evenodd" x="0" y="0" width="106" height="33"/>
            <text stroke="none" font-family="Source Code Pro" font-size="12px" font-weight="900" fill="#979797" fill-opacity="1" text-anchor="middle" id="master">
                <tspan fill="#f0f0f0" x="53" y="20" fill-opacity="1">master</tspan>
            </text>
        </g>
        <g id="goldref" transform="translate(352.000000, 18.000000)">
            <rect id="Rectangle-3" fill="#CD9F00" fill-rule="evenodd" x="0" y="0" width="108" height="33"/>
            <text stroke="none" font-family="Source Code Pro" font-size="12px" font-weight="900" fill="#979797" fill-opacity="1" text-anchor="middle" id="master-2">
                <tspan fill="#f0f0f0" x="54" y="20" fill-opacity="1">HEAD</tspan>
            </text>
        </g>
        <g id="ref" transform="translate(241.000000, 72.000000)">
            <rect id="Rectangle-2" fill="#F44D27" fill-rule="evenodd" x="0" y="0" width="106" height="33"/>
            <text stroke="none" font-family="Source Code Pro" font-size="12px" font-weight="900" fill="#979797" fill-opacity="1" text-anchor="middle" id="master">
                <tspan fill="#f0f0f0" x="53" y="20" fill-opacity="1">v1.0</tspan>
            </text>
        </g>
    </g>
</svg>

<?xml version="1.0" encoding="UTF-8"?>
<svg id="svg35993" version="1.1" viewBox="0 0 469 252" xmlns="http://www.w3.org/2000/svg" xmlns:cc="http://creativecommons.org/ns#" xmlns:dc="http://purl.org/dc/elements/1.1/" xmlns:rdf="http://www.w3.org/1999/02/22-rdf-syntax-ns#">
 <metadata id="metadata35999">
  <rdf:RDF>
   <cc:Work rdf:about="">
    <dc:format>image/svg+xml</dc:format>
    <dc:type rdf:resource="http://purl.org/dc/dcmitype/StillImage"/>
    <dc:title>images/branch-and-history</dc:title>
   </cc:Work>
  </rdf:RDF>
 </metadata>
 <!-- Generator: Sketch 56.3 (81716) - https://sketch.com -->
 <title id="title35915">images/branch-and-history</title>
 <desc id="desc35917">Created with Sketch.</desc>
 <g id="03---Branch-and-History" fill="none" fill-rule="evenodd">
  <path id="Line-4" d="m343 197v-38h1v38h4l-4.5 9-4.5-9h4z" fill="#8F8981" fill-rule="nonzero"/>
  <g id="symref" transform="translate(300 206)">
   <rect id="Rectangle-2" width="86" height="33" fill="#00909A" fill-rule="evenodd"/>
   <text id="master" fill="#979797" font-family="Source Code Pro" font-size="12px" font-weight="700" text-anchor="middle"><tspan id="tspan35921" x="43" y="20" fill="#f0f0f0">Snapshot C</tspan></text>
  </g>
  <path id="Line-5" d="m198 197v-38h1v38h4l-4.5 9-4.5-9h4z" fill="#8F8981" fill-rule="nonzero"/>
  <g id="g35932" transform="translate(155 206)">
   <rect id="rect35926" width="86" height="33" fill="#00909A" fill-rule="evenodd"/>
   <text id="text35930" fill="#979797" font-family="Source Code Pro" font-size="12px" font-weight="700" text-anchor="middle"><tspan id="tspan35928" x="43" y="20" fill="#f0f0f0">Snapshot B</tspan></text>
  </g>
  <path id="path35934" d="m53 197v-38h1v38h4l-4.5 9-4.5-9h4z" fill="#8F8981" fill-rule="nonzero"/>
  <g id="g35942" transform="translate(10 206)">
   <rect id="rect35936" width="86" height="33" fill="#00909A" fill-rule="evenodd"/>
   <text id="text35940" fill="#979797" font-family="Source Code Pro" font-size="12px" font-weight="700" text-anchor="middle"><tspan id="tspan35938" x="43" y="20" fill="#f0f0f0">Snapshot A</tspan></text>
  </g>
  <g id="other" transform="translate(300 134)">
   <rect id="rect35944" width="86" height="33" fill="#EFEFE7" fill-rule="evenodd"/>
   <text id="text35948" fill="#979797" font-family="Source Code Pro" font-size="12px" font-weight="700" text-anchor="middle"><tspan id="tspan35946" x="43" y="21" fill="#808080">f30ab</tspan></text>
  </g>
  <path id="Line-6" d="m406 63v-24h1v24h4l-4.5 9-4.5-9h4z" fill="#8F8981" fill-rule="nonzero"/>
  <path id="Line-7" d="m383.28 125.87 12.031-21.054.86824.49614-12.031 21.054 3.473 1.9846-8.3723 5.5816.55816-10.047 3.473 1.9846z" fill="#8F8981" fill-rule="nonzero"/>
  <path id="Line-8" d="m300.25 126.12-10.422-20.845.89443-.44721 10.422 20.845 3.5777-1.7889v10.062l-8.0498-6.0374 3.5777-1.7889z" fill="#8F8981" fill-rule="nonzero"/>
  <g id="g35960" transform="translate(155 134)">
   <rect id="rect35954" width="86" height="33" fill="#EFEFE7" fill-rule="evenodd"/>
   <text id="text35958" fill="#979797" font-family="Source Code Pro" font-size="12px" font-weight="700" text-anchor="middle"><tspan id="tspan35956" x="43" y="21" fill="#808080">34ac2</tspan></text>
  </g>
  <g id="g35968" transform="translate(10 134)">
   <rect id="rect35962" width="86" height="33" fill="#EFEFE7" fill-rule="evenodd"/>
   <text id="text35966" fill="#979797" font-family="Source Code Pro" font-size="12px" font-weight="700" text-anchor="middle"><tspan id="tspan35964" x="43" y="21" fill="#808080">98ca9</tspan></text>
  </g>
  <path id="Line" d="m250 150h50v1h-50v4l-9-4.5 9-4.5v4z" fill="#8F8981" fill-rule="nonzero"/>
  <path id="Line-2" d="m105 150h50v1h-50v4l-9-4.5 9-4.5v4z" fill="#8F8981" fill-rule="nonzero"/>
  <g id="ref" transform="translate(353 72)">
   <rect id="rect35972" width="106" height="33" fill="#F44D27" fill-rule="evenodd"/>
   <text id="text35976" fill="#979797" font-family="Source Code Pro" font-size="12px" font-weight="700" text-anchor="middle"><tspan id="tspan35974" x="53" y="20" fill="#f0f0f0">master</tspan></text>
  </g>
  <g id="goldref" transform="translate(352 18)">
   <rect id="Rectangle-3" width="108" height="33" fill="#CD9F00" fill-rule="evenodd"/>
   <text id="master-2" fill="#979797" font-family="Source Code Pro" font-size="12px" font-weight="700" text-anchor="middle"><tspan id="tspan35980" x="54" y="20" fill="#f0f0f0">HEAD</tspan></text>
  </g>
  <g id="g35990" transform="translate(241 72)">
   <rect id="rect35984" width="106" height="33" fill="#F44D27" fill-rule="evenodd"/>
   <text id="text35988" fill="#979797" font-family="Source Code Pro" font-size="12px" font-weight="700" text-anchor="middle"><tspan id="tspan35986" x="53" y="20" fill="#f0f0f0">v1.0</tspan></text>
  </g>
 </g>
</svg>
